!!!COM: Gabriel Faure/
!!!CNT: Francais
!!!TXO: Francais
!!!OTL: "La parfum impe/rissable"
!!!LYR: Le Conte de Lisle
!!!OPR: 
!!!OPS: Op. 76
!!!ONM: No. 1
!!!ENC: Emily Thomas
!!!YOR: CD Sheet Music French Art Songs, The Ultimate Collection
!!!YOR: CD Sheet Music, LLC 2003
!!!ODT: 1897/
!!NB: Vocal melody and text encoded.
**kern	**silbe
=1	=1
*clefG2	*
*k[f#c#g#d#]	*
*M3/4	*
*MM[Andante molto moderato]	*
2.r	.
=2	=2
{16e	{Quand
16e	la
[8g#	fleur
8g#]	|
16b	du
16b	so-
8.a	-leil,
16a	la
=3	=3
16g#	ro-
16g#	-se
16f#	de
16f#	La-
[4e	-hor,
8e]}	|}
{16f#	{De
16f#	son
=4	=4
8g#	a^me
16a#	o-
16a#	-do-
8b#	-rante
16g#	a
16g#	rem-
8a#	-pli
16f#	goute
16f#	a\
=5	=5
4g#	gout-
8g#}	-te,}
{16g#	{La
16g#	fi-
8f#	-o-
16e	-le
16e	d'ar-
=6	=6
4e	-gile
8c#	ou
16e	de
16e	cris-
8.f#	-tal
16f#	ou
=7	=7
[4g#	d'or,
8g#]}	|}
{16g#	{Sur
16g#	le
8a	sa-
16a#	-ble
16a#	qui
=8	=8
4b	bru^le
8ccn	on
16b-	peut
16b-	l'e/-
8.g#	-pan-
16f#	-dre
=9	=9
4f#	tou-
[4e	-te.
16e]}	|}
16r	.
{8b	{Les
=10	=10
8.b#	fleu-
16b	-ves
16cc#	et
16cc#	la
[8g#	mer
16g#]	|
16g#	i-
16f#	-non-
16f#	-de-
=11	=11
8.e	-raient
16b	en
4a	vain
8a	Ce
16a	sanc-
16g#	-tu-
=12	=12
8.g#	-aire
16f#	e/-
8f#	-troit
16e	qui
16e	la
8f#	tint
16e	en-
16f#	-fer-
=13	=13
4g#	-me/-
16g#}	-e}
16r	.
{8g#	{Il
16g#	garde
16g#	en
16f#	se
16f#	bri-
=14	=14
[4a	-sant
8a	|
16g#	son
16g#	a-
8g#	-ro^-
16f#	-me
16f#	di-
=15	=15
[4a	-vin
16a]}	|}
{16a	{Et
16g#	sa
16g#	pous-
8.a	-sie\re
16a#	heu-
=16	=16
8.b	-reuse
16b	en
4ccn	res-
12b-	-te
12g#	par-
12f#	-fu-
=17	=17
4f#	-me/-
[4e	-e.
16e]}	|}
16r	.
8r	.
=18	=18
{[4ee	{Puis-
6ee	|
12ee	-que
12ee	par
12ddn	la
12ccn	bles-
=19	=19
8b	-sure
8a	ou-
4a	-ver-
12gn	-te
12a	de
12a	mon
=20	=20
[4b	coeur
16b]}	|}
16r	.
{16b	{Tu
16b	t'e-
8b	-cou-
16a	-les
16a	de
=21	=21
[4ccn	me/me,
8ccn]	|
16ccn	o^
16ccn	ce/-
8ccn	-les-
16b-	-te
16b-	-li-
=22	=22
4dd-}	-queur,}
{8cc#	{In-
16cc#	-ex-
16cc#	-pri-
8.cc#	-mable
16bn	a-
=23	=23
4b	-mour
8a	qui
16g#	m'en-
16g#	-flam-
8.e	-mais
16f#	pour
=24	=24
4g#	el-
[4g#	-le!
16g#]}	|}
16r	.
{16g#	{Qu'il
16g#	lui
=25	=25
8g#	sort
16g#	par-
16g#	-don-
[4gn	-ne/
8gn]}	|}
{16a-	{Que
16dd-	mon
=26	=26
8dd-	mal
16b-	soit
16b-	be/-
[4an	-ni!
8an]}	|}
{16b-	{Par
16b-	de
=27	=27
8ccn	la\
16a-	l'heure
16a-	hu-
[4b-	-maine
8b-]	|
16bn	et
16bn	le
=28	=28
8ddn	temps
16cc#	in-
16cc#	-fi-
[4b	-ni
8b]}	|}
{8b	{Mon
=29	=29
4.ee	coeur
8ee	est
8b	em-
8b	-bau-
=30	=30
[4ccn	-me/
12ccn]	|
12b-	d'une
12b-	o-
12g#	-deur
12f#	le
12e	mor-
=31	=31
4.a	-tel-
8g#	|
4f#	|
=32	=32
[2.e	-le!
=33	=33
4e]}	|}
4r	.
4r	.
==	==
*-	*-
